X: 826
T: Alastair Of The Den
R: polka
M: 2/4
K: Dminor
|:dd/d/ f2|ed e2|gg/g/ cc|gg/g/ cc|
dd/d/ f2|ed ef/g/|af ge|d2 d2:|
|:ag df/g/|ag d2|ge ce/f/|ge c2|
[1 ag df/g/|ag df/g/|af ge|d2 d2:|
[2 dd f2|ed ef/g/|af ge|d2 d2||

